X:242
T: Miss Maria Duncas Reel
R: reel
M: C|
L: 1/8
K: G
g |\
edc BAG | BcB B2g | edc BAG | ABA A2g |\
edc BAG | BcB B2e | def gdB | ABA A2 :||: (B/c/) |
(b/a/)(g/a) d2B2 | (b/c'/b/) d'(bg) | edc BAG | ABA A2 :|

